!!!COM: Palestrina, Giovanni Perluigi da
!!!OPR: L'homme arme (1582)
!!!OTL: Sanctus
**kern	**kern	**kern	**kern
*Ibass	*Itenor	*Icalto	*Icant
!Bassus	!Tenor	!Altus	!Cantus
*clefF4	*clefGv2	*clefG2	*clefG2
*k[]	*k[]	*k[]	*k[]
*D:dor	*D:dor	*D:dor	*D:dor
*M4/2	*M4/2	*M4/2	*M4/2
=1	=1	=1	=1
2.D	0r	2.A	0d
4E	.	4G	.
2F#	.	2A	.
2G	.	2B	.
=2	=2	=2	=2
2F#	1r	2A	1d
2G	.	2B	.
1C	2.E	2.c	[1g
.	4F	4A	.
=3	=3	=3	=3
0r	2G	2B	2g]
.	2A	2c	2f
.	2G	2B	1e
.	2A	2c#	.
=4	=4	=4	=4
1r	2D	4d	1d
.	.	4e	.
.	2d	4f	.
.	.	4d	.
2.AA	2.c	1e	[1a
4BB	4B	.	.
=5	=5	=5	=5
2C#	4A	2r	1a]
.	4G	.	.
2D	2F	2d	.
2C#	2E	2e	1a
[2D	2D	[2f	.
=6	=6	=6	=6
2D]	2F	4f]	1d
.	.	4e	.
2GG	2G	2.d	.
1AA	2E	.	[1a
.	.	8c	.
.	.	8B	.
.	4A	4c	.
.	4B	4d	.
=7	=7	=7	=7
0r	2c	2e	1a]
.	2d	2f	.
.	2c	2e	1a
.	2d	2f	.
=8	=8	=8	=8
2.E	2B	2e	1.g
.	2.e	2c	.
4F	.	.	.
2G	.	2B	.
.	4d	.	.
2A	2c	2A	2f
=9	=9	=9	=9
2G#	2B	2B	1e
2A	1A	1c	.
2F#	.	.	1d
2G	[2G	2B	.
=10	=10	=10	=10
1D	2G]	1A	[0d
.	2F#	.	.
2r	1G	1B	.
2G	.	.	.
=11	=11	=11	=11
2F	2r	2.A	1d]
2D	1d	.	.
.	.	4G	.
2F	.	2A	1r
2G	2d	2B	.
=12	=12	=12	=12
2E	1c#	2G	0r
2E	.	2g	.
[1D	[1d	2f	.
.	.	2d	.
=13	=13	=13	=13
1D]	1d]	2.f	2r
.	.	.	2dd
.	.	8e	.
.	.	8d	.
1r	[1A	2e	2cc
.	.	2f	2a
=14	=14	=14	=14
1r	1A]	1e	1cc
2r	1d	1f	2dd
2D	.	.	4a
.	.	.	4b
=15	=15	=15	=15
2C	1.e	2g	4cc
.	.	.	4g
2AA	.	4c	1cc
.	.	4d	.
2C	.	4e	.
.	.	4c	.
2D	2d	2f	[2b
=16	=16	=16	=16
1E	1c	1e	2b]
.	.	.	1a
1E	1B	[1e	.
.	.	.	2g#
=17	=17	=17	=17
2AA	2A	1e]	1a
2A	2c	.	.
2G	2B	2r	1r
2E	2G	[2e	.
=18	=18	=18	=18
2G	2B	2e]	2r
2A	2c	2e	1a
2F	2A	1d	.
2F	2A	.	2a
=19	=19	=19	=19
1E	1B	1e	1g#
2.F	2r	2A	[1a
.	2d	2f	.
4G	.	.	.
=20	=20	=20	=20
1A	2c	4e	0a]
.	.	4d	.
.	2A	4c	.
.	.	4d	.
1r	2c	4e	.
.	.	8d	.
.	.	8e	.
.	2d	[2f	.
=21	=21	=21	=21
1r	2B-	4f]	1d
.	.	4e	.
.	2B-	2.d	.
2r	1A	.	2e
.	.	8c	.
.	.	8B	.
2A	.	2c#	2e
=22	=22	=22	=22
2F	2r	2.d	1d
2G	1d	.	.
.	.	4e	.
1A	.	2f	2r
.	2c#	2e	2a
=23	=23	=23	=23
2D	2d	2r	2f
2E	2B	2e	2g
1F	1A	2c	1a
.	.	2d	.
=24	=24	=24	=24
1C	2r	1e	2g
.	2e	.	1cc
1r	2c	2A	.
.	2d	2B	4b
.	.	.	4a
=25	=25	=25	=25
0r	1e	2.c	1g
.	.	4d	.
.	2A	4e	2a
.	.	4c	.
.	2B	[2d	4g
.	.	.	4f
=26	=26	=26	=26
1r	1c	4d]	1e
.	.	4c	.
.	.	1c	.
2r	1G	.	2d
2E	.	[2B	2g
=27	=27	=27	=27
2C	2r	4B]	2e
.	.	4A	.
2D	2d	1A	2f
1E	2B	.	1e
.	2B	2G#	.
=28	=28	=28	=28
1AA	2.c	2A	1e
.	.	2c	.
.	8B	.	.
.	8A	.	.
1r	2c	2A	2r
.	2G	2B	2g
=29	=29	=29	=29
1r	1A	1c	2e
.	.	.	2f#
1E	2G	1B	1g
.	2B	.	.
=30	=30	=30	=30
1E	2c	1e	2g
.	2B	.	2b
2AA	2A	1e	2cc
2E	2G	.	2b
=31	=31	=31	=31
0C	2.c	2e	2a
.	.	4c	2g
.	4B	4d	.
.	2A	4e	2.cc
.	.	4f	.
.	2G	[2e	.
.	.	.	4b
=32	=32	=32	=32
1D	2.F	4e]	0a
.	.	4d	.
.	.	2.d	.
.	8E	.	.
.	8D	.	.
1AA	1E	.	.
.	.	8c	.
.	.	8B	.
.	.	2c#	.
=33	=33	=33	=33
[0D	[0D	[0d	[0a
=34	=34	=34	=34
0D]	0D]	0d]	0a]
==	==	==	==
*-	*-	*-	*-
!!!CDT: 1525/^1526/-1594/2/2
!!!OCY: Italia
!!!AGN: Mass (Paraphrase)
!!!AST: renaissance, vocal
!!!ASW: Popular Song
!!!PWK: Masses, Book 4
!!!RNB: Cadence finals: A
!!!YOR: Le Opere Complete, v. 10, p. 60
!!!YOO: Rome, Italy: Fratelli Scalera
!!!END: 1992//
!!!EED: John Miller
!!!YEC: Copyright 2000, John Miller
!!!YEN: United States of America
!!!YEM: Rights to all derivative electronic formats reserved.
!!!YEM: Refer to licensing agreement for further details.
!!!YEM: This file must be accompanied by the licensing agreement.
!!!YEM: A copy of the licensing agreement may be found at http://www.music-cog.ohio-state.edu/HumdrumDatabases/Palestrina/license.txt
!!!EMD: converted to Humdrum by Bret Aarden
